X: 1
T: String Quartet in F Minor opus 20 no 5 mvt 3
C: Franz Joseph Haydn
%%abc-version 2.0
%%abcx-abcm2ps-target-version 5.9.1 (29 Sep 2008)
%%abc-creator hum2abc beta
%%abcx-conversion-date 2021/02/14 14:38:18
%%abc-copyright Copyright (c) 1994, 2000 Center for Computer Assisted Research in the Humanities
%%abc-edited-by Frances Bennion
%%abcx-initial-encoding-date 1997/04/15
%%gracespace 0 6 6
%%humdrum-veritas 3673808547
%%humdrum-veritas-data 929875181
%%linebreak <none>
%%barnumbers 0
L: 1/8
M: 6/8
N: Derived from op20n5-03.krn
Q: "Adagio"
%%staves [1 2 3 4]
V: 1
V: 2
V: 3 clef=alto
V: 4 clef=bass
K: F
[V:1]c>dc cdA [I:setbarnb2]|
[V:2]A2A A2F |
[V:3]C2C C2C |
[V:4]F,2F, F,2F, |
[V:1]B>cB B2z |
[V:2]G2G G2G |
[V:3]D2D D2D |
[V:4]F,2F, F,2F, |
[V:1]B>cB BdG |
[V:2]G2G G2G |
[V:3]C2C C2C |
[V:4]E,2E, E,2E, |
[V:1]A>BA A2z |
[V:2]A2A A2G |
[V:3]C2C C2C |
[V:4]F,2F, F,2E, |
[V:1]f>gf gab |
[V:2]F2A dcB |
[V:3]D2D D2G |
[V:4]D,2D B,A,G, |
[V:1]e>fe f2z |
[V:2]G2G Fz2 |
[V:3]B2B Az2 |
[V:4]C2C, F,z2 |
[V:1]d>^cd d=cB |
[V:2]F2F F^FG |
[V:3]B,>A,B, B,CD |
[V:4]B,>A,B, B,A,G, |
[V:1]A>BG F2z |
[V:2]F>GE F2z |
[V:3]C2B, A,2z |
[V:4]C2C, F,2z |
[V:1]z3 c'//b//a//g//f//e//d//c//B//A//G//F// |
[V:2]c>dc cdA |
[V:3]A2A A2F |
[V:4]F,2F, F,2F, |
[V:1]E2z2 c//e//d//f//e//g//f//a// |
[V:2]B>cB Bz2 |
[V:3]E2F Gz2 |
[V:4]G,2F, E,z2 |
[V:1]gz2 b//c'//d'//c'//b//a//g//f//e//d//c//B// |
[V:2]B>cB BdG |
[V:3]C2C C2C |
[V:4]E,2E, E,2E, |
[V:1]Az2 z//F//E//F//G//F//A//F//B//F//c//F// |
[V:2]A>BA Az2 |
[V:3]C2C Cz2 |
[V:4]F,2F, F,z2 |
[V:1]d2z >^fg/b/d'/b/ |
[V:2]d>_ed dbg |
[V:3]F2^F G2G |
[V:4]B,,2B, B,2B, |
[V:1]z/e/g/c'/e'/g'/ z//e//f//g//a//g//f//e//d//c//B//A// |
[V:2]f2e fz2 |
[V:3]G2G C2A |
[V:4]B,2B, A,2F, |
[V:1]G3 z//b//g//e//c//B//G//E//F |
[V:2]B>cB BcA |
[V:3]D2D C2C |
[V:4]G,2F, E,CF, |
[V:1]z3 z//F//E//F//G//F//A//G//B//A//d//c// |
[V:2]G>BE F2z |
[V:3]D2B, A,2z |
[V:4]B,,2C, F,,2z |
[V:1]c>dc c/a/g/f/e/d/ |
[V:2]A2A A2A |
[V:3]A,2A, A,2A, |
[V:4]F,2F, F,2F, |
[V:1](3:2:2^c2-c//d//e//d//A//G//A//F// A//E//A//D//A//E//A//|
[V:2]G2>F2 z2 |
[V:3]A,4 z2 |
[V:4]E,2>F,2 z2 |
[V:1](3F/A/B/(3=B/c/^c/(3d/e/f/ (3^f/g/^g/a3/=c/ |
[V:2]z4 zD |
[V:3]z4 zA, |
[V:4]z4 z^F, |
[V:1]c=B//G//^F//G//A//G//F//G// G,z2 |
[V:2]D2=B, B,2D |
[V:3]G,2D D2=B, |
[V:4]G,2G, G,2F, |
[V:1]g>ag g/f/z/e//d//c//=B//A//G// |
[V:2]C2C C2=B, |
[V:3]C2G A2D |
[V:4]E,2E, D,2G, |
[V:1]F//E//A//G//c//=B//A//G//F//E//D//C// G,z2 |
[V:2]C2E D2D |
[V:3]E2C =B,2B, |
[V:4]C,2C, G,2F, |
[V:1]g(3g/a/g/(3c'/=b/a/ (3g/f/e/(3d/c/=B/(3A/G/F/ |
[V:2]C2C C2=B, |
[V:3]C2G A2D |
[V:4]E,2E, D,2G, |
[V:1](3E/A/G/(3c/=B/A/(3G/F/E/ Dz2 |
[V:2]C2E D2D |
[V:3]E2C =B,2B, |
[V:4]C,2C, G,2F, |
[V:1]g>ag c'2^g |
[V:2]C2C C2C |
[V:3]C2C C2B, |
[V:4]E,2E, E,2E, |
[V:1]a//=b//c'//b//a//g//f//e//g//f//a//g// f//e//d//^c//e//d//f//e//d//=c//=B//A// |
[V:2]C2D D2D |
[V:3]A,2A, A,2D |
[V:4]F,2F, F,2F, |
[V:1]G3/e//c//g//e//g//e// c2d/c/ |
[V:2]E2E E2F |
[V:3]C2C C2=B, |
[V:4]G,2G, G,2G, |
[V:1]ccc d2=B/G/ |
[V:2]E/G/E/G/E/G/ F/G/F/G/F/G/ |
[V:3]Ccc =B3 |
[V:4]C2C G,2G, |
[V:1]ccc d2=B/G/ |
[V:2]E/G/E/G/E/G/ F/G/F/G/F/G/ |
[V:3]c3 =B3 |
[V:4]C,2C G,2G, |
[V:1]cee e>fe |
[V:2]Ecc ccc |
[V:3]cGG G2G |
[V:4]C,CC C2C |
[V:1]eee ^f>gf |
[V:2]ccc _e3 |
[V:3]AAA C3 |
[V:4]A,A,A, A,2A, |
[V:1]gfe d3 |
[V:2]edc A2=B |
[V:3]CDE F3 |
[V:4]G,3- G,3 |
[V:1]efg d3 |
[V:2]cde A2=B |
[V:3]EDC F3 |
[V:4]G,3- G,3 |
[V:1]efg d3 |
[V:2]cde A2=B |
[V:3]EDC F3 |
[V:4]G,3- G,3 |
[V:1]efg a=bc' |
[V:2]c4 fe |
[V:3]ECC CGG |
[V:4]CA,E, F,D,C, |
[V:1]d'(3z/d'/e'/(3f'/d'/=b/ gfd |
[V:2]d2z4 |
[V:3]G2z4 |
[V:4]=B,,2z4 |
[V:1]=BFE ADf |
[V:2]zDC zA,z |
[V:3]zG,G, zF,z |
[V:4]z=B,,C, zF,z |
[V:1]=BFE zAz |
[V:2]z=B,C zFz |
[V:3]zDC zCz |
[V:4]zG,A, zF,z |
[V:1]z=Bz2 cc |
[V:2]zDz2 EE |
[V:3]zFz2 EG |
[V:4]zG,z2 C,C, |
[V:1]cz/E//F//G//E//F//D// E//C//=B,//C//D//C//E//C//F//C//G//C// |
[V:2]Ez4 z |
[V:3]Gz4 z |
[V:4]C,z4 z |
[V:1]Az=B cz2 |
[V:2]CzF Ez2 |
[V:3]FzD Cz2 |
[V:4]F,zG, C,z2 |
[V:1]c>dc cdA |
[V:2]z6 |
[V:3]A2A A2F |
[V:4]F,2F, F,2F, |
[V:1]B6- |
[V:2]F>GF FGD |
[V:3]D2D D2G |
[V:4]G,2G, G,2G, |
[V:1]B>cB BdG |
[V:2]E6 |
[V:3]G2G G2E |
[V:4]C,2C, C,2C, |
[V:1]A6- |
[V:2]_E>FE EGC |
[V:3]C2C C2C |
[V:4]F,2F, F,2F, |
[V:1]A>BA Adc |
[V:2]D6- |
[V:3]A,2D D2A |
[V:4]^F,2F, F,2F, |
[V:1]B/d/g/b/a/c'/ b/a/g/f/e/d/ |
[V:2]D2^F G2B |
[V:3]Gz2 D2G |
[V:4]G,2G, G,2G, |
[V:1]^caa a/^g//a//b//a//=b//a//c'//a//^c'//a// |
[V:2]A^cc cz2 |
[V:3]EEE Ez2 |
[V:4]A,A,A, A,z2 |
[V:1]d'aa3/ ^g//a//=b//a//^c'//a//d'//a//^d'//a// |
[V:2]Add dz2 |
[V:3]DDD Dz2 |
[V:4]F,F,F, F,z2 |
[V:1]e'aa3/ ^g//a//=b//a//^c'//a//d'//a//e'//a// |
[V:2]Aee ez2 |
[V:3]^CCC Cz2 |
[V:4]^C,C,C, C,z2 |
[V:1]f'2F Gb^c |
[V:2]A2F G2G |
[V:3]D2F G2E |
[V:4]D,2F, G,2A, |
[V:1]dzF Gb^c |
[V:2]F2F G2E |
[V:3]D2F G2G |
[V:4]B,2F, G,2A, |
[V:1]d//^c//e//d//f//e//g//f//a//g//f//e// d//c//d//e//^f//g//a//b//c'//d'//c'//b// |
[V:2]F2F ^F2F |
[V:3]F2A A2A |
[V:4]D2D C2C |
[V:1]a//c'//b//d'//c'//b//a//g//^f//a//g//b// a//c'//b//a//g//=f//e//d//c//=B//c//d// |
[V:2]G2G E2E |
[V:3]D2D C2C |
[V:4]B,2B, B,2B, |
[V:1]e//f//g//a//b//c'//b//a//g//f//e//g// f//a//g//f//e//d//c//B//A//c//B//g// |
[V:2]F2F c2A |
[V:3]C2C G2F |
[V:4]A,2A, E,2F, |
[V:1]f//e//d//c//B//A//B//=B//c//e//G//c// [EG,]z2 |
[V:2]G2G G2z |
[V:3]E2E E2z |
[V:4]C2C, C,2z |
[V:1]z6 |
[V:2]c>dc cdA |
[V:3]A2A A2F |
[V:4]F,2F, F,2F, |
[V:1]z3 z//b//a//b//c'//b//d'//c'//b//a//d'//c'// |
[V:2]B>cB Bz2 |
[V:3]F2F FGD |
[V:4]G,2G, G,2G, |
[V:1]b(3:2:2z2z//b/g/ e/c/B/|
[V:2]B>cB BdG |
[V:3]E2E E2E |
[V:4]C,2C, C,2C, |
[V:1]A2(3:2:2zz/8f//e// f//g//f//a//g//f//e//d//^c//|
[V:2]A>BA Az2 |
[V:3]F2C D2F |
[V:4]F,2F, F,2A, |
[V:1]d2(3:2:2zz/8d'//^c'// d'//c'//d'//c'//d'//=c'//b//a//g//|
[V:2]d>_ed dbg |
[V:3]F2^F G2G |
[V:4]B,2B, B,2B, |
[V:1]f/e/g/c'/e'/g'/ z//e//f//g//a//g//f//e//d//c//B//A// |
[V:2]f2e fz2 |
[V:3]G2G C2A |
[V:4]B,2B, A,2F, |
[V:1]G2(3:2:2zz/8b//g// e//c//B//G//E//F|
[V:2]B>cB BcA |
[V:3]D2D C2C |
[V:4]G,2F, E,CF, |
[V:1]z3 z//C//=B,//C//D//C//D//E//F//G//A//B// |
[V:2]G>dF Ez2 |
[V:3]D2D G,z2 |
[V:4]B,,2=B,, C,z2 |
[V:1]c>dc c/B/z/a//g//f//e//d//c// |
[V:2]F2F F2E |
[V:3]F,2C D2G, |
[V:4]A,,2A,, G,,2C, |
[V:1]B//A//d//c//f//e//d//c//B//A//G//F// C2z |
[V:2]F2A G2G |
[V:3]A,2F, E,2E, |
[V:4]F,,2F,, C,2B,, |
[V:1]c(3c/d/c/(3f/e/d/ (3c/B/A/(3G/F/E/(3D/C/B,/ |
[V:2]F2F F2E |
[V:3]F,2C D2G, |
[V:4]A,,2A,, G,,2C, |
[V:1](3A,/D/C/(3F/E/G/(3F/c/A/ [CG]z2 |
[V:2]F2A G2G |
[V:3]A,2F, E,2E, |
[V:4]F,,2F,, C,2B,, |
[V:1]c>dc f2^c |
[V:2]F2F F2F |
[V:3]F,2F, F,2_E, |
[V:4]A,,2A,, A,,2A,, |
[V:1]d//e//f//e//d//c//B//A//c//B//d//c// B//A//G//^F//A//G//B//A//G//=F//E//D// |
[V:2]F2G G2G |
[V:3]D,2D D2G |
[V:4]B,,2B,, B,,2B,, |
[V:1]C-C/A//F//c//A//c//A// F2G/F/ |
[V:2]A2A, A,2B, |
[V:3]F2F F2E |
[V:4]C,2C, C,2C, |
[V:1]FFF G2E/C/ |
[V:2]A,FF E3 |
[V:3]F/C/A,/C/A,/C/ B,/C/B,/C/B,/C/ |
[V:4]F,2F, C,2C, |
[V:1]FFF G2E/C/ |
[V:2]A,FF E3 |
[V:3]A,/C/A,/C/A,/C/ B,/C/B,/C/B,/C/ |
[V:4]F,,2F, C,2C, |
[V:1]FAA A>BA |
[V:2]FFF F>GF |
[V:3]A,CC C2C |
[V:4]F,,F,F, F,2F, |
[V:1]AAA =B>cB |
[V:2]FFF _A3 |
[V:3]DDD F,3 |
[V:4]D,D,D, D,2D, |
[V:1]cBA G3 |
[V:2]AGF D2E |
[V:3]F,G,A, B,3 |
[V:4]C,3- C,3 |
[V:1]ABc G3 |
[V:2]FGA D2E |
[V:3]A,G,F, B,3 |
[V:4]C,3- C,3 |
[V:1]ABc G3 |
[V:2]FGA D2E |
[V:3]A,G,F, B,3 |
[V:4]C,3- C,3 |
[V:1]ABc def |
[V:2]F4 BA |
[V:3]A,F,F, F,CC |
[V:4]F,D,A,, B,,G,,F,, |
[V:1]g(3z/g/a/(3b/g/e/ cBG |
[V:2]G2z4 |
[V:3]C2z4 |
[V:4]E,,2z4 |
[V:1]EBA dGb |
[V:2]zGF zDz |
[V:3]zCC zB,z |
[V:4]zE,F, zB,z |
[V:1]eBA zdz |
[V:2]zEF zBz |
[V:3]zGF zFz |
[V:4]zCD zB,z |
[V:1]zez2 ff |
[V:2]zGz2 AA |
[V:3]zB,z2 A,C |
[V:4]zCz2 F,F, |
[V:1]fz/A//B//c//A//B//G// A//F//E//F//G//F//A//F//B//F//c//F// |
[V:2]Az4 z |
[V:3]Cz4 z |
[V:4]F,z4 z |
[V:1]dzE Fz2 |]
[V:2]FzB, A,z2 |]
[V:3]B,zG, F,z2 |]
[V:4]B,,zC, F,,z2 |]

